//1ยบ
s.boot

//Para probar que se escucha
{SinOsc.ar([340, 345])*0.2}.play;

//2ยบ
FoxDot.start

//3ยบ
//poner en la consola: python -m FoxDot
//empezar a lanzar eventos desde FoxDot a SuperCollider

//4ยบ
s.quit